src/lib/packages/icons/src/assets/filled/camera-square.svg

<svg width="24" height="24" viewBox="0 0 24 24" fill="none" xmlns="http://www.w3.org/2000/svg">
<path d="M17.625 3H6.375C4.125 3 3 4.125 3 6.375V17.625C3 19.875 4.125 21 6.375 21H17.625C19.875 21 21 19.875 21 17.625V6.375C21 4.125 19.875 3 17.625 3ZM17 15.333C17 16.444 16.444 17 15.333 17H8.66602C7.55502 17 6.99902 16.444 6.99902 15.333V10.333C6.99902 9.22201 7.55502 8.66602 8.66602 8.66602H9.7771L10.1421 7.56909C10.2561 7.22909 10.5741 6.99902 10.9331 6.99902H13.0649C13.4239 6.99902 13.742 7.22809 13.856 7.56909L14.2209 8.66602H15.332C16.443 8.66602 16.999 9.22201 16.999 10.333V15.333H17ZM13.667 12.833C13.667 13.754 12.921 14.5 12 14.5C11.079 14.5 10.333 13.754 10.333 12.833C10.333 11.913 11.079 11.166 12 11.166C12.921 11.166 13.667 11.913 13.667 12.833Z" fill="currentColor"/>
</svg>

<svg xmlns="http://www.w3.org/2000/svg" width="24" height="24" fill="none"><path fill="currentColor" d="M17.625 3H6.375C4.125 3 3 4.125 3 6.375v11.25C3 19.875 4.125 21 6.375 21h11.25C19.875 21 21 19.875 21 17.625V6.375C21 4.125 19.875 3 17.625 3ZM17 15.333C17 16.444 16.444 17 15.333 17H8.666c-1.111 0-1.667-.556-1.667-1.667v-5c0-1.111.556-1.667 1.667-1.667h1.111l.365-1.097a.835.835 0 0 1 .791-.57h2.132c.359 0 .677.23.791.57l.365 1.097h1.111c1.111 0 1.667.556 1.667 1.667v5H17Zm-3.333-2.5a1.667 1.667 0 1 1-3.333 0 1.667 1.667 0 0 1 3.333 0Z"/></svg>
